img/icons/paywall/icon-question.svg

<svg width="28" height="28" viewBox="0 0 28 28" fill="none" xmlns="http://www.w3.org/2000/svg">
<g clip-path="url(#clip0_13793_7319)">
<path d="M22.1667 4.66667H20.8822C20.6112 3.35028 19.8949 2.16747 18.8539 1.31747C17.8128 0.46746 16.5107 0.00218337 15.1667 0L5.83334 0C2.61684 0 4.35974e-06 2.61683 4.35974e-06 5.83333V20.8297C-0.000610515 21.1591 0.0638196 21.4854 0.189599 21.7898C0.315378 22.0943 0.500031 22.3709 0.732965 22.6039C0.9659 22.8368 1.24253 23.0215 1.54699 23.1472C1.85145 23.273 2.17775 23.3375 2.50717 23.3368C2.9925 23.3368 3.47667 23.1957 3.8955 22.9168L7.33717 20.622C7.7422 21.7559 8.48756 22.7369 9.47135 23.4311C10.4551 24.1252 11.6293 24.4985 12.8333 24.5H19.4798L24.1045 27.5847C24.4821 27.8359 24.9209 27.9799 25.374 28.0013C25.827 28.0226 26.2774 27.9206 26.677 27.706C27.0769 27.492 27.4112 27.1734 27.6443 26.7842C27.8773 26.3951 28.0002 25.9499 28 25.4963V10.5C28 7.2835 25.3832 4.66667 22.1667 4.66667ZM2.60167 20.9755C2.5795 20.9895 2.51534 21.0315 2.42434 20.9837C2.33217 20.9347 2.33217 20.8565 2.33217 20.8308V5.83333C2.33217 3.90367 3.9025 2.33333 5.83217 2.33333H15.1655C17.0952 2.33333 18.6655 3.90367 18.6655 5.83333V14C18.6655 15.9297 17.0952 17.5 15.1655 17.5H8.16551C7.80851 17.5 7.53434 17.6855 7.50634 17.7042L2.60167 20.9755ZM25.6667 25.4975C25.6667 25.522 25.6667 25.6013 25.5757 25.6503C25.4823 25.7005 25.4193 25.6573 25.3983 25.6422L20.4808 22.3627C20.289 22.235 20.0638 22.1668 19.8333 22.1667H12.8333C12.1098 22.1659 11.4042 21.9412 10.8135 21.5234C10.2228 21.1056 9.77583 20.5153 9.53401 19.8333H15.1667C18.3832 19.8333 21 17.2165 21 14V7H22.1667C24.0963 7 25.6667 8.57033 25.6667 10.5V25.4975ZM7 8.16667C6.99917 7.65391 7.11116 7.14725 7.32803 6.68261C7.5449 6.21798 7.86134 5.80675 8.25491 5.47808C8.64849 5.14942 9.10955 4.91137 9.60541 4.78082C10.1013 4.65027 10.6198 4.63042 11.1242 4.72267C11.8238 4.85326 12.4676 5.19249 12.9709 5.69578C13.4742 6.19906 13.8134 6.84284 13.944 7.5425C14.0721 8.26413 13.9716 9.00774 13.6566 9.66951C13.3416 10.3313 12.8278 10.8782 12.187 11.2338C11.6655 11.5208 11.6655 11.6048 11.6655 11.6667C11.6655 11.9761 11.5426 12.2728 11.3238 12.4916C11.105 12.7104 10.8083 12.8333 10.4988 12.8333C10.1894 12.8333 9.89267 12.7104 9.67388 12.4916C9.45509 12.2728 9.33217 11.9761 9.33217 11.6667C9.33217 10.1407 10.5432 9.4745 11.06 9.18983C11.3983 9.00433 11.7542 8.56567 11.6457 7.94617C11.6012 7.71735 11.4893 7.50703 11.3245 7.3422C11.1596 7.17736 10.9493 7.06552 10.7205 7.021C10.5502 6.98752 10.3745 6.99278 10.2065 7.0364C10.0384 7.08003 9.88238 7.16089 9.74984 7.273C9.61871 7.38227 9.5133 7.51912 9.44111 7.67379C9.36892 7.82846 9.33172 7.99715 9.33217 8.16783C9.33217 8.47725 9.20926 8.774 8.99046 8.99279C8.77167 9.21158 8.47492 9.3345 8.16551 9.3345C7.85609 9.3345 7.55934 9.21158 7.34055 8.99279C7.12175 8.774 6.99884 8.47725 6.99884 8.16783L7 8.16667ZM11.6667 15.1667C11.6667 15.4761 11.5438 15.7728 11.325 15.9916C11.1062 16.2104 10.8094 16.3333 10.5 16.3333C10.1906 16.3333 9.89384 16.2104 9.67505 15.9916C9.45625 15.7728 9.33334 15.4761 9.33334 15.1667C9.33334 14.8572 9.45625 14.5605 9.67505 14.3417C9.89384 14.1229 10.1906 14 10.5 14C10.8094 14 11.1062 14.1229 11.325 14.3417C11.5438 14.5605 11.6667 14.8572 11.6667 15.1667Z" fill="#C47A2C"/>
</g>
<defs>
<clipPath id="clip0_13793_7319">
<rect width="28" height="28" fill="white"/>
</clipPath>
</defs>
</svg>

<svg width="28" height="28" fill="none" xmlns="http://www.w3.org/2000/svg"><g clip-path="url(#clip0_13793_7319)"><path d="M22.167 4.667h-1.285A5.846 5.846 0 0015.167 0H5.833A5.84 5.84 0 000 5.833V20.83a2.502 2.502 0 002.507 2.507c.486 0 .97-.141 1.389-.42l3.441-2.295a5.844 5.844 0 005.496 3.878h6.647l4.625 3.085A2.505 2.505 0 0028 25.496V10.5a5.84 5.84 0 00-5.833-5.833zM2.602 20.976c-.022.014-.087.056-.178.008-.092-.05-.092-.128-.092-.153V5.833c0-1.93 1.57-3.5 3.5-3.5h9.334c1.93 0 3.5 1.57 3.5 3.5V14c0 1.93-1.57 3.5-3.5 3.5h-7c-.357 0-.632.186-.66.204l-4.904 3.271zm23.065 4.521c0 .025 0 .104-.091.153-.094.05-.157.007-.178-.008l-4.917-3.28a1.17 1.17 0 00-.648-.195h-7a3.505 3.505 0 01-3.299-2.334h5.633A5.84 5.84 0 0021 14V7h1.167c1.93 0 3.5 1.57 3.5 3.5v14.997zM7 8.168a3.495 3.495 0 014.124-3.444 3.527 3.527 0 012.82 2.82 3.518 3.518 0 01-1.757 3.69c-.521.288-.521.372-.521.434a1.167 1.167 0 11-2.334 0c0-1.526 1.211-2.192 1.728-2.477a1.17 1.17 0 00.264-1.848 1.17 1.17 0 00-1.117-.306 1.157 1.157 0 00-.457.237 1.16 1.16 0 00-.418.895 1.167 1.167 0 11-2.333 0L7 8.167zm4.667 7a1.167 1.167 0 11-2.333 0 1.167 1.167 0 012.333 0z" fill="#C47A2C"/></g><defs><clipPath id="clip0_13793_7319"><path fill="#fff" d="M0 0h28v28H0z"/></clipPath></defs></svg>
